X: 17242
T: Herb Reid's
R: polka
M: 2/4
K: Dmajor
|:d2 cB|AF DE/F/|GE EB|{c}BA FA|
d2 cB|AF DE/F/|GE CE|1 D2 DB/c/:|2 D2 D2||
|:FA AF/A/|de fa|ge Bc|dc BA|
FA AF/A/|de fa|ge Bc|1 d2 dA:|2 d2 AB/c/||

